X:1
T:Eya dulcis adque vernans rosa
T:Jonannis Tapissier 1370-1410
T:I
T:Eya dulcis adque vernans rosa
T:Vale placens peroratrix
C:Jonannis Tapissier 1370-1410
%%score [ 1 2 ] [ 3 4 ]
L:1/8
Q:1/4=75
M:6/8
K:C
V:1 treble nm="Vox 1" snm="Ob. 1"
V:2 treble-8 nm="Vox 2" snm="Ob. 2"
V:3 bass nm="Contratenor" snm="B"
V:4 bass nm="Tenor" snm="B"
V:1
 C2 E F2 D | E2 C G2 C | z E2 D3 | G3- G3 | G3 G3 | E3- E3 | z A2 A2 G | F3- F3 | F3 A3 | G3- G3 | %10
w: |||E- *|ya dul-|cis _|ad- que ver-|nans _|ro- *|sa, _|
 z3 G3- | G3 D3 | E3- E2 F | G3- G2 G | G2 G G G2 | A3 z3 | F3- F2 G | A3- A3 | G3 G2 G | %19
w: vir-|* go|pla- * *|cens, _ pu-|el- la for- mo-|sa,|de- * *|i _|ma- ter val-|
 E E/GAG GF/ | E3- E3 |[M:6/4] A2 F2 G2 E2 F2 D2 | z F2 A2 F2 F2 A2 G | A2 D2 A2 G2 E2 F2 | %24
w: * de _ glo- ri- o- *|sa, _|spi- ra pre- ces vo- *||ce _ _ cla- mo- ro-|
[M:6/8] A3- A3 | F3- F3 | G3- G3 | GED G2 E | D3- D2 A | A2 A (2:3:2AG | F3- F3 | z6 | C2 E G2 C | %33
w: sa. _|O _|spes _|nos- * * * *|tra, _ mul-|tum in- di- ge-|mus, _|||
 E2 G C2 C | z C2 D3 | G3- G3 | E3 E3 | G3- G3 | z E2 A2 G | A3- A3 | A3 F3 | E3- E3 | z3 A3- | %43
w: ||plo- *|rat Ro-|ma _|om- nis, _|nos _|ri- ge-|mus; _|"Tol-|
 A3 A3 | A3- A2 G | F3- F2 G | A2 A A A2 | E3 z z z | G3- G2 A | B3- B3 | G3 G2 A | GG/ DGG ED/ | %52
w: * le|scis- * *|ma!" _ ad|te di- ri- gi-|mus,|cor- * *|da _|lau- des ti-|bi por- ti- * * gi- *|
 G3- G3 |[M:6/4] G2 E2 A2 F2 A2 F2 | z A2 E2 E2 C2 C2 C | D2 G2 _B2 A2 F2 G2 |[M:6/8] A3- A3 | %57
w: mus. _|Nunc li- li- um _ _|al- * * * * *|* * ti re- gi- mi-|nis, _|
 A3- A3 | F3- F3 | FDC C2 B, | D3- D2 A | A2 G (2:3:2^FF | G3- G3 | z6 |"^III" C2 G G2 C | %65
w: pres- *|sum _|te- * * * *|lis _ mul-|ti gra- va- mi-|nis, _|||
 G2 C C2 C | z E2 D3 | G3- G3 | C3 E3 | G3- G3 | z F2 A2 A | F3- F3 | F3 F3 | D3- D3 | z3 D3- | %75
w: ||te _|pos- tu-|lat, _|u- ber _|sub- *|a- mi-|nis, _|sis|
 D3 A3 | G3- G2 E | G3- G2 G | G2 B A G2 | A3 z z z | F3- F2 D | F3- F3 | C3 C2 D | FA/FAG FG/ | %84
w: _ li-|li- * o|ro- * sa|so- * la- mi-|nis.|Sa- * *|lus _|nos- tra, nunc|est _ _ ma- li ho- *|
 F3- F3 |[M:6/4] D2 F2 A2 D2 D2 F2 | z A2 D2 F2 D2 A2 A | A2 F2 A2 E2 D2 C2 |[M:6/8] D3- D3 | %89
w: ra, _|po- pu- lo- rum fle- tus|ri- * gant o- ra; nos-|tris pa- cem pe- ri- o-|dis _|
 G3- G3 | F3- F3 | GED F2 E | G3- G2 G | E2 D (2:3:2^CC | D3- D3 | z6 | F6- | F6- | F6 |] %99
w: ro- *|ra, _|quod pro- tu- is _|sem- * per|cle- men- ti- o-|ra. _|||||
V:2
 c e2 d f2 | e g2 c g2 | c2 A G B2 | c3- c2 d | e3 e3 | g3- g3 | d2 d2 d2 | c3- c3 | z6 | %9
w: |||Va- * *|le pla-|cens _|pe- ro- ra-|trix, _||
 d2 B c d2 | G3 z3 | G3- G2 A | B3- B3 | c3- c3 | c3 c3 | d3- d3 | z6 | d3- d3 | e3- e dc | %19
w: sal- * * *|ve|de- * *|cens _|im- *|pe- ra-|trix, _||gau- *|de _ po- *|
 (2:3:2Bc (2:3:2BA | B3- B3 |[M:6/4] z a2 d2 e2 c2 d2 B | c2 d2 c2 A2 c4 | d A2 d2 c B e2 c2 B | %24
w: tens im- pe- ra-|trix _|vir- * * * * *|tu- * tis _ et|glo- * * * ri- * * *|
[M:6/8] d3 z z z | e d2 c B2 | c3- c3 | c2 c c2 B | A3- A3 | d3 d2 d | c2 c A2 A | c3- c3 | %32
w: e.|Sem- * per _|dum _|o- ras im- pe-|tras, _|sem- per cum|pre- ces per- pe-|tras _|
 g e2 c g2 | c e2 e g2 | e2 g f d2 | e3- e2 e | g3 g3 | e3- e3 | c2 f2 f2 | e3- e3 | z6 | %41
w: _ _ _ _|||po- * los-|* que|de- *|um pe- ne-|tras _||
 a2 f g a2 | e3 z z z | e3- e2 d | f3- f3 | c3- c3 | f3 f3 | c3- c3 | z6 | d3- d3 | d3- d cB | %51
w: tu- * * *|e|vi _ the-|o- *|ri- *|e; _|_ _||cum _|Jo- * su- *|
 (2:3:2d_e (2:3:2dd | G3- G3 |[M:6/4] z c2 e2 d2 f2 d2 c | e2 c2 e2 a2 f4 | g d2 e2 d f c2 d2 c | %56
w: e fa- cis sta-|re. _|Phe- * * * * bum,|_ _ Dy- a- nam|re- * * * sta- * * *|
[M:6/8] d3 z z z | A d2 e d2 | c3- c3 | f2 f f2 g | a3- a3 | d3 B2 A | c2 e e2 d | c3- c3 | %64
w: re,|Thi- * phon _|_ _|va- * le _|_ _|im- pe- *|tra- * * *|re _|
 g e2 c g2 | c e2 e g2 | c2 c A G2 | e3- e2 d | e3 g3 | e3- e3 | d2 d2 d2 | c3- c3 | z6 | %73
w: _ _ _ _|||sa- * *|crum _|cum _|mu- ne- ri-|bus. _||
 g2 e a g2 | d3 z z z | d3- d2 B | c3- c3 | c3- c3 | e3 c3 | d3- d3 | z6 | c3- c3 | f3- f ed | %83
w: E- lec- to- *|rum|est _ _|o- *|ra- *|re, _|_ _||tu- *|um _ de- *|
 (2:3:2cd (2:3:2cA | c3- c3 |[M:6/4] z d2 f2 a2 d2 f2 d | d2 A2 d2 f2 d4 | A d2 d2 f e a2 f2 e | %88
w: o im- pe- ra-|re, _|glo- * * ri- * *|am- que pa- * cem|da- * * * * * * *|
[M:6/8] g3 z z z | g d2 e d2 | c3- c3 | A2 d c2 B | c3- c3 | ^f3 f2 f | g2 g d2 e | f3 z z z | %96
w: re|an- * ge- *|lis _|_ _ _ _||ac ho- *|mi- * ni- *|bus.|
 c6- | c6- | c6 |] %99
w: |||
V:3
 C2 F,2 A,2 | E,2 G,2 C,2 | C,3 z D,2 | G,6- | G,6- | G,6 | F,3 A,3- | A,3 C3- | C3 A,3 | z6 | %10
 G,6- | G,6 | B,6 | G,6- | G,6 | A,6 | A,3 C3 | A,6 | B,6 | G,6- | G,6 |[M:6/4] D,4 C,4 F,4- | %22
 F,4 F,8 | A,4 C2 G,4 G,2 |[M:6/8] A,4 D,2- | D,2 F,4 | G,6- | G,6 | F,6 | z6 | A,6 | F,6 | %32
 C,2 C,2 C,2 | C,2 C,2 C,2 | C,3 z G,2 | C,6- | C,6- | C,6 | C3 A,3- | A,3 A,3- | A,3 D,3 | z6 | %42
 A,6- | A,6 | C6 | C6- | C6 | C6 | D3 D3 | G,6 | G,6 | G,6 | D6 |[M:6/4] C,4 F,4 D,4 | A,4 C4 F,4 | %55
 G,4 _B,2 C4 F,2 |[M:6/8] A,3- A,3- | A,2 A,- A,3 | A,6- | A,6 | A,6 | z6 | G,6- | G,6 | %64
 C,2 C,2 C,2 | C,2 C,2 C,2 | A,3 z B,2 | E,6- | E,6- | E,6 | D,3 F,3- | F,3 D,3- | D,3 A,3 | z6 | %74
 G,6- | G,6 | G,6 | G,6- | G,6 | F,6 | A,3 C3 | A,6- | A,6 | A,6 | A,6 |[M:6/4] D,4 D,4 D,4 | %86
 A,4 D,4 A,4 | A,4 A,2 C4 C2 |[M:6/8] B,6- | B,2 G,- G,3 | C6- | C6 | G,6 | z6 | B,6- | B,6 | C6- | %97
 C6- | C6 |] %99
V:4
 z6 | z6 | z6 | C,6- | C,6- | C,6 | D,6 | F,6- | F,6 | G,6- | G,6- | G,6 | E,6- | E,6- | E,6 | %15
 D,6 | F,6- | F,6 | E,6- | E,6- | E,6 |[M:6/4] z12 | F,12 | D,6 E,6 |[M:6/8] D,6- | D,6 | C,6- | %27
 C,6 | D,6 | D,6 | F,6- | F,6 | z6 | z6 | z6 | G,6- | G,6- | G,6 | A,6 | A,6- | A,6 | A,6- | A,6- | %43
 A,6 | F,6- | F,6- | F,6 | A,6 | G,6- | G,6 | B,6- | B,6- | B,6 |[M:6/4] z12 | A,12 | G,6 F,6 | %56
[M:6/8] D,6- | D,6 | F,6- | F,6 | D,6 | D,6 | C,6- | C,6 | z6 | z6 | z6 | C,6- | C,6- | C,6 | D,6 | %71
 F,6- | F,6 | G,6- | G,6- | G,6 | E,6- | E,6- | E,6 | D,6 | F,6- | F,6 | F,6- | F,6- | F,6 | %85
[M:6/4] z12 | D,12 | D,6 A,6 |[M:6/8] G,6- | G,6 | A,6- | A,6 | G,6 | A,6 | G,6- | G,6 | F,6- | %97
 F,6- | F,6 |] %99

